logo.svg

<?xml version="1.0" encoding="UTF-8" standalone="no"?>
<!-- Created with Inkscape (http://www.inkscape.org/) -->

<svg
   width="16"
   height="16"
   viewBox="0 0 16 16"
   version="1.1"
   id="svg1"
   inkscape:version="1.3.2 (091e20e, 2023-11-25, custom)"
   sodipodi:docname="logo.svg"
   xmlns:inkscape="http://www.inkscape.org/namespaces/inkscape"
   xmlns:sodipodi="http://sodipodi.sourceforge.net/DTD/sodipodi-0.dtd"
   xmlns="http://www.w3.org/2000/svg"
   xmlns:svg="http://www.w3.org/2000/svg">
  <sodipodi:namedview
     id="namedview1"
     pagecolor="#ffffff"
     bordercolor="#999999"
     borderopacity="1"
     inkscape:showpageshadow="2"
     inkscape:pageopacity="0"
     inkscape:pagecheckerboard="0"
     inkscape:deskcolor="#d1d1d1"
     inkscape:document-units="px"
     showgrid="true"
     inkscape:zoom="32.92466"
     inkscape:cx="7.8664443"
     inkscape:cy="7.4867896"
     inkscape:window-width="1920"
     inkscape:window-height="991"
     inkscape:window-x="-9"
     inkscape:window-y="-9"
     inkscape:window-maximized="1"
     inkscape:current-layer="layer1">
    <inkscape:grid
       id="grid1"
       units="px"
       originx="0"
       originy="0"
       spacingx="1"
       spacingy="1"
       empcolor="#0099e5"
       empopacity="0.30196078"
       color="#0099e5"
       opacity="0"
       empspacing="1"
       dotted="false"
       gridanglex="30"
       gridanglez="30"
       visible="true" />
  </sodipodi:namedview>
  <defs
     id="defs1" />
  <g
     inkscape:label="Layer 1"
     inkscape:groupmode="layer"
     id="layer1">
    <rect
       style="fill:#ff5722;fill-opacity:1;stroke-width:0;stroke-linejoin:bevel"
       id="rect1"
       width="11.313709"
       height="11.313709"
       x="5.6568542"
       y="-5.6568546"
       ry="1.4142137"
       transform="rotate(45)" />
    <path
       id="rect2"
       style="fill:#ffffff;fill-opacity:1;stroke-width:0;stroke-linejoin:bevel"
       d="M 3.516199 7.7975095 C 3.5042374 7.785548 3.4875738 7.7781746 3.4692426 7.7781746 L 1.4142136 7.7781746 L 1.4142136 12.661631 C 1.4142136 12.698293 1.3845846 12.727922 1.3479223 12.727922 L -3.5355339 12.727922 L -3.5355339 14.782951 C -3.5355339 14.819613 -3.5059049 14.849242 -3.4692426 14.849242 L 3.4692426 14.849242 C 3.5059049 14.849242 3.5355339 14.819613 3.5355339 14.782951 L 3.5355339 7.8444659 C 3.5355339 7.8261347 3.5281605 7.8094711 3.516199 7.7975095 z "
       transform="rotate(-45)" />
  </g>
</svg>

<svg width="16" height="16" version="1.1" viewBox="0 0 16 16" xmlns="http://www.w3.org/2000/svg">
 <g stroke-width="0">
  <rect transform="rotate(45)" x="5.6569" y="-5.6569" width="11.314" height="11.314" ry="1.4142" fill="#4aa5f0"/>
  <path transform="rotate(-45)" d="m3.5162 7.7975c-0.011962-0.011962-0.028625-0.019335-0.046956-0.019335h-2.055v4.8835c0 0.036662-0.029629 0.066291-0.066291 0.066291h-4.8835v2.055c0 0.036662 0.029629 0.066291 0.066291 0.066291h6.9385c0.036662 0 0.066291-0.029629 0.066291-0.066291v-6.9385c0-0.018331-0.0073734-0.034995-0.019335-0.046956z" fill="#fff"/>
 </g>
</svg>
